X: 1
T:Brenda Stubbert
M:C
L:1/8
Q:80
C:Jerry Holland
S:Reel
K:HP
|: e|
{gAGAG}A2{g}BA{g}G{d}A{e}A{d}B|
{gAGAG}A2{g}BA{g}ed{G}dB|
{gGd}G2{g}BA{g}B{d}G{e}G{d}B|  !
{Gdc}d2{g}eA{g}B{d}G{e}G{d}B|
{gAGAG}A2{g}BA{g}G{d}A{e}A{d}B|
{gAGAG}A2{g}BA{g}ed{G}da|  !
ge{g}dB{g}GA{g}Bd|
{gef}e2{g}dB{g}eA{GAG}A2:| |:
e|  !
{gAGAG}A2{ag}a2{AGAG}A2{gf}g2|
Aageag{a}eg|
{Gd}G2{g}BA{g}B{d}G{e}G{d}B|  !
{Gdc}d2{g}eA{g}B{d}G{e}G{d}B|
{gAGAG}A2{ag}a2{AGAG}A2{gf}g2|
Aageag{a}eg|  !
ae{g}dB{g}GA{g}Bd|
{gef}e2{g}dB{g}eA{GAG}A2:|
